static/icons/calculator.svg

<svg width="24" height="24" viewBox="0 0 24 24" fill="none" xmlns="http://www.w3.org/2000/svg">
<g clip-path="url(#clip0_107_2324)">
<path d="M19.5 0.75H4.5C2.43225 0.75 0.75 2.43225 0.75 4.5V19.5C0.75 21.5677 2.43225 23.25 4.5 23.25H19.5C21.5677 23.25 23.25 21.5677 23.25 19.5V4.5C23.25 2.43225 21.5677 0.75 19.5 0.75ZM21.75 4.5V11.25H12.75V2.25H19.5C20.7405 2.25 21.75 3.2595 21.75 4.5ZM4.5 2.25H11.25V11.25H2.25V4.5C2.25 3.2595 3.2595 2.25 4.5 2.25ZM2.25 19.5V12.75H11.25V21.75H4.5C3.2595 21.75 2.25 20.7405 2.25 19.5ZM19.5 21.75H12.75V12.75H21.75V19.5C21.75 20.7405 20.7405 21.75 19.5 21.75Z" fill="black"/>
<path d="M4.5 7.5H6V9C6 9.19891 6.07902 9.38968 6.21967 9.53033C6.36032 9.67098 6.55109 9.75 6.75 9.75C6.94891 9.75 7.13968 9.67098 7.28033 9.53033C7.42098 9.38968 7.5 9.19891 7.5 9V7.5H9C9.19891 7.5 9.38968 7.42098 9.53033 7.28033C9.67098 7.13968 9.75 6.94891 9.75 6.75C9.75 6.55109 9.67098 6.36032 9.53033 6.21967C9.38968 6.07902 9.19891 6 9 6H7.5V4.5C7.5 4.30109 7.42098 4.11032 7.28033 3.96967C7.13968 3.82902 6.94891 3.75 6.75 3.75C6.55109 3.75 6.36032 3.82902 6.21967 3.96967C6.07902 4.11032 6 4.30109 6 4.5V6H4.5C4.30109 6 4.11032 6.07902 3.96967 6.21967C3.82902 6.36032 3.75 6.55109 3.75 6.75C3.75 6.94891 3.82902 7.13968 3.96967 7.28033C4.11032 7.42098 4.30109 7.5 4.5 7.5ZM15 7.5H19.5C19.6989 7.5 19.8897 7.42098 20.0303 7.28033C20.171 7.13968 20.25 6.94891 20.25 6.75C20.25 6.55109 20.171 6.36032 20.0303 6.21967C19.8897 6.07902 19.6989 6 19.5 6H15C14.8011 6 14.6103 6.07902 14.4697 6.21967C14.329 6.36032 14.25 6.55109 14.25 6.75C14.25 6.94891 14.329 7.13968 14.4697 7.28033C14.6103 7.42098 14.8011 7.5 15 7.5ZM19.5 18H15C14.8011 18 14.6103 18.079 14.4697 18.2197C14.329 18.3603 14.25 18.5511 14.25 18.75C14.25 18.9489 14.329 19.1397 14.4697 19.2803C14.6103 19.421 14.8011 19.5 15 19.5H19.5C19.6989 19.5 19.8897 19.421 20.0303 19.2803C20.171 19.1397 20.25 18.9489 20.25 18.75C20.25 18.5511 20.171 18.3603 20.0303 18.2197C19.8897 18.079 19.6989 18 19.5 18ZM19.5 15H15C14.8011 15 14.6103 15.079 14.4697 15.2197C14.329 15.3603 14.25 15.5511 14.25 15.75C14.25 15.9489 14.329 16.1397 14.4697 16.2803C14.6103 16.421 14.8011 16.5 15 16.5H19.5C19.6989 16.5 19.8897 16.421 20.0303 16.2803C20.171 16.1397 20.25 15.9489 20.25 15.75C20.25 15.5511 20.171 15.3603 20.0303 15.2197C19.8897 15.079 19.6989 15 19.5 15ZM7.8105 17.25L8.871 16.1895C8.94063 16.1199 8.99587 16.0372 9.03356 15.9462C9.07124 15.8552 9.09064 15.7577 9.09064 15.6593C9.09064 15.5608 9.07124 15.4633 9.03356 15.3723C8.99587 15.2813 8.94063 15.1986 8.871 15.129C8.80137 15.0594 8.7187 15.0041 8.62772 14.9664C8.53674 14.9288 8.43923 14.9094 8.34075 14.9094C8.24227 14.9094 8.14476 14.9288 8.05378 14.9664C7.9628 15.0041 7.88013 15.0594 7.8105 15.129L6.75 16.1895L5.6895 15.129C5.61987 15.0594 5.5372 15.0041 5.44622 14.9664C5.35524 14.9288 5.25773 14.9094 5.15925 14.9094C5.06077 14.9094 4.96326 14.9288 4.87228 14.9664C4.7813 15.0041 4.69863 15.0594 4.629 15.129C4.55937 15.1986 4.50413 15.2813 4.46644 15.3723C4.42876 15.4633 4.40936 15.5608 4.40936 15.6593C4.40936 15.7577 4.42876 15.8552 4.46644 15.9462C4.50413 16.0372 4.55937 16.1199 4.629 16.1895L5.6895 17.25L4.629 18.3113C4.55937 18.3809 4.50413 18.4636 4.46644 18.5545C4.42876 18.6455 4.40936 18.743 4.40936 18.8415C4.40936 18.94 4.42876 19.0375 4.46644 19.1285C4.50413 19.2194 4.55937 19.3021 4.629 19.3717C4.69863 19.4414 4.7813 19.4966 4.87228 19.5343C4.96326 19.572 5.06077 19.5914 5.15925 19.5914C5.25773 19.5914 5.35524 19.572 5.44622 19.5343C5.5372 19.4966 5.61987 19.4414 5.6895 19.3717L6.75 18.3113L7.8105 19.3717C7.87999 19.4416 7.96261 19.4971 8.05361 19.5349C8.14461 19.5728 8.24219 19.5923 8.34075 19.5923C8.43931 19.5923 8.53689 19.5728 8.62789 19.5349C8.71889 19.4971 8.80151 19.4416 8.871 19.3717C8.94071 19.3022 8.99601 19.2195 9.03375 19.1285C9.07148 19.0375 9.0909 18.94 9.0909 18.8415C9.0909 18.743 9.07148 18.6455 9.03375 18.5545C8.99601 18.4635 8.94071 18.3808 8.871 18.3113L7.8105 17.25Z" fill="black"/>
</g>
<defs>
<clipPath id="clip0_107_2324">
<rect width="24" height="24" fill="white"/>
</clipPath>
</defs>
</svg>

<svg xmlns="http://www.w3.org/2000/svg" width="24" height="24" fill="none"><g fill="#000" clip-path="url(#a)"><path d="M19.5.75h-15A3.754 3.754 0 0 0 .75 4.5v15a3.754 3.754 0 0 0 3.75 3.75h15a3.754 3.754 0 0 0 3.75-3.75v-15A3.754 3.754 0 0 0 19.5.75Zm2.25 3.75v6.75h-9v-9h6.75c1.24 0 2.25 1.01 2.25 2.25ZM4.5 2.25h6.75v9h-9V4.5c0-1.24 1.01-2.25 2.25-2.25ZM2.25 19.5v-6.75h9v9H4.5c-1.24 0-2.25-1.01-2.25-2.25Zm17.25 2.25h-6.75v-9h9v6.75c0 1.24-1.01 2.25-2.25 2.25Z"/><path d="M4.5 7.5H6V9a.75.75 0 0 0 1.5 0V7.5H9A.75.75 0 0 0 9 6H7.5V4.5a.75.75 0 0 0-1.5 0V6H4.5a.75.75 0 0 0 0 1.5Zm10.5 0h4.5a.75.75 0 1 0 0-1.5H15a.75.75 0 1 0 0 1.5ZM19.5 18H15a.75.75 0 1 0 0 1.5h4.5a.75.75 0 1 0 0-1.5Zm0-3H15a.75.75 0 1 0 0 1.5h4.5a.75.75 0 1 0 0-1.5ZM7.81 17.25l1.061-1.06a.75.75 0 1 0-1.06-1.061l-1.061 1.06-1.06-1.06a.75.75 0 0 0-1.061 1.06l1.06 1.061-1.06 1.061a.75.75 0 1 0 1.06 1.06l1.061-1.06 1.06 1.06a.747.747 0 0 0 1.224-.242.75.75 0 0 0-.163-.818l-1.06-1.061Z"/></g><defs><clipPath id="a"><path fill="#fff" d="M0 0h24v24H0z"/></clipPath></defs></svg>
